X:1
T:梁山伯与祝英台（大提与小提二重奏）
T:梁山伯与祝英台 （大提与小提二重奏）
T:何占豪、陈钢作曲 袁世雄改编
C:何占豪、陈钢作曲总谱改编
%%score 1 2
L:1/8
Q:1/4=50
M:4/4
K:G
V:1 treble nm="小提琴" snm="Vln."
V:2 bass nm="大提琴" snm="Vc."
V:1
 z (dBA) | G4 z (AFE) | D4 z (fef) | (d>e) (^cB) (A/B/c/B/) (d>B) | (A/B/d/A/) (B/c/B/A/) G3 d | %5
 (FA)(EG) D3 (E/G/) |[M:2/4] D4 |[M:4/4] vB2 (d>e) (g>a) (e/g/d) |{/b} (d'>g') (e'/d'/b/d'/) a4 | %9
 a(a/b/){/a} (fe) (d>e) (ga) | (Bg) (e/d/e/g/) d4 | (ub>d') (fa) (e/g/d- d2) | %12
 (B/>d/B) (d/>e/f/a/) (e3 d/e/) | (g>a){/b} (d'b) a(b/a/) (ge/d/) | B2 g2 (e/>g/e/d/) (B/d/e/g/) | %15
 d3 z z4 | B,2 (D>E) (G>A) (E/G/D) |{/B} (d>g) (e/d/B/d/) A4 | A(A/B/){/A} (FE) (D>E) (GA) | %19
 (B,G) (E/D/E/G/) D4 | (ub>d') (fa) (e/g/d- d2) | (B/>d/B) (d/>e/f/a/) (e3 d/e/) | %22
 (g>a){/b} (d'b) a(b/a/) (ge/d/) | B2 g2 (e/>g/e/d/) (B/d/e/g/) | d3 z z4 | %25
 z2 z (b/d'/) (a/b/a/g/) (fe) | d2 z2 z (ufed) | A4 z (afe) | d4 z (fe^c) | %29
 (B>e) (^cB) vA (ua2 f) | (e>a) (fe) d (d'2 ^c') | (bd')(ab){/!fermata!b} !fermata!e'4 | %32
 (3(bab) (3(d'bd') (3(e'd'e') (3(f'e'f') | Ta'8 | B2 (d>e) (g>a) (e/g/d) | %35
 Td'4 (d'>g') (e'/d'/b/d'/) | Ta4 Tb4 | TB,4 (D/E/G/A/) (5:4:5(B/d/e/g/a/) | %38
 (ub>d') (fa) (e/g/d- d2) | (B/>d/B) (d/>e/f/a/) (e3 d/e/) | (g>a){/b} (d'b) (ab/a/) (ge/d/) | %41
 B2 g2 (e/>g/e/d/) (B/d/e/g/) | d4 z4 | z8 | z8 | %45
 D4- (6:4:6D/4(E/4G/4A/4B/4d/4A/4B/4d/4e/4 g/4a/4b/4d'/4(7:4:7a/4b/4d'/4e'/4g'/4a'/4b'/4) | %46
 !fermata!d''4 (b'/4b/4)(b'/4a'/4)(g'/4g/4)(g'/4a'/4) (e'/4e/4)(e'/4g'/4)(d'/4d/4)d'/4e'/4 | %47
 b6- (6:4:6b/(d/e/g/b/d'/) | Ta6- (6:4:6a/(D/E/G/B/d/) | TA4- A(B,DE) | %50
 (G/4A/4)B/4d/4e/4g/4(!tenuto!a/4!tenuto!b/4) !fermata!d'6 | %51
 (f/4a/4b/4a/4f/4a/4b/4a/4 f/4a/4b/4a/4f/4a/4b/4a/4 fdBA) | F4- F(A,B,DEF) | %53
{/!fermata!B} !fermata!A4 ||[K:D][M:2/4][Q:1/4=140] z4 | z4 | (g>f) (ef) | a3 b | %58
 (d'>f') (e'/d'/b) | a3 b | (d'>b) (d'e') | (f'>e') (f'a') | (e'/f'/e'/d'/) (ba) | d'3 b | %64
 (d'>b) (d'e') | (f'>e') (f'a') | (b/d'/a/b/) (c'b) | a3 z | z4 | z4 | z (g2 f | ed ef) | (a4- | %73
 a2 b2) | (d'3 f' | e'f' c'b) | (a4- | a2 b2) | (d4- | d2 e2) | f4- | f4 | ab/b/ (af) | ef BA | %84
 d4- | d2 a2 | bd'/d'/ (ba) | fa/a/ (fe) | de/e/ (dB) | AB FE | D z z2 | z4 | (g>f) (ef) | a3 b | %94
 (d'>f') (e'/d'/b) | a3 b | (d'>b) (d'e') | (f'>e') (f'a') | (e'/f'/e'/d'/) (ba) | d'3 b | %100
 (d'>b) (d'e') | (f'>e') (f'a') | (b/d'/a/b/) (c'b) | a3 z |[Q:1/4=80] z4 | z4 | z4 | z4 | %108
[Q:1/4=40] F2 (A>B) |{/B} (d>e) (BA) |{/f} a4 | b2 (d'f) | (ef/a/) (dc/B/) |{/d} e4 | %114
 ve (e2 f/a/) | A2{/c} (ec) | B2 z (c/e/) | BB z (F/A/) | BB z d | (B>d) (ea) | (fe/f/) (cB) | %121
 A{/f} (a2 b/d'/) | a4 | (ab/d'/) (b/a/f) | (e3 f) | (e>a) (f/a/f/e/) | (d>f) (e/f/e/c/) | %127
 B(e cB) | A4 | z4 | z4 | (a2 bd') | (d3{/e} c) | (B{/g)}b (af) | e4 | e2 (fa) | (A3 B) | %137
 (A>B) (ce) | B4 | (Bb) (af) | e4 | (B{/g)}b (a/b/a/f/) | e4 | e(e fa) | (d>e){/d} (BA) | %145
 (F/>A/F/A/) (B/A/B/d/) | a4 | z4 | z4 | z4 | z4 | z4 | z4 |[M:4/4] vd2 (e/>f/d/e/){/f} a2 f2 | %154
 (e>d) (ef/a/){/f} (e3 c/B/) | F2{/F} A2 (B/>d/A/B/) d(f/a/) | e{/c}(ecB) A4 | %157
 ud2 (dB/A/) (AB) z vd |{/A} (F/>A/F) (A/>B/c/e/) B2 z (c/B/) | A (B2{/G)} B (A{/B)}d (e/c/B) | %160
 (A>G) F2 (B d3) |{/e} c4 c>(c B/A/B) | A8 | z8 | z4 z (a'g'f') | e'4 (d'3 c'/b/) | %166
 (a3 b/d'/) e'>a' (f'/e'/c'/b/) | a4 d'2 (d'b/a/) | (a b2) c' (b/>c'/b/a/) (fa) | %169
 (a b2{/d'} b) (a{/b)}d'{/d'}(c'b) | (a>g) f2 (f'>a') (e'/f'/e') | e'a z (ua/b/) c'>(c' b/a/b) | %172
 a4- a z z2 ||[K:G] z2 z2 z (dBA) | G4 z (AFE) | D4 z (fef) | (d>e) (^cB) (A/B/c/B/) (d>B) | %177
 (A/B/d/A/) (B/c/B/A/) G3 d | (FA)(EG) D3 (E/G/) |[M:2/4] D4 |[M:4/4] B2 (d>e) (g>a) (e/g/d) | %181
{/b} (d'>g') (e'/d'/b/d'/) a4 | a(a/b/){/a} (fe) (d>e) (ga) | (Bg) (e/d/e/g/) d4 | %184
 (ub>d') (fa) (e/g/d- d2) | (B/>d/B) (d/>e/f/a/) (e3 d/e/) | (g>a){/b} (d'b) a(b/a/) (ge/d/) | %187
 B2 g2 (e/>g/e/d/) (B/d/e/g/) | d3 z z4 | B,2 (D>E) (G>A) (E/G/D) |{/B} (d>g) (e/d/B/d/) A4 | %191
 A(A/B/){/A} (FE) (D>E) (GA) | (B,G) (E/D/E/G/) D4 | (ub>d') (fa) (e/g/d- d2) | %194
 (B/>d/B) (d/>e/f/a/) (e3 d/e/) | (g>a){/b} (d'b) a(b/a/) (ge/d/) | B2 g2 (e/>g/e/d/) (B/d/e/g/) | %197
 d3 z (vd'b)(d'{/f'}a') | (g'3{/d'} b){/b} (d'2 z e') | (d'>e') (a'f') (e'{/f'}a')(f'e') | d'8- | %201
 d'4 b'4 |] %202
V:2
 z4 | z (DB,A,) G,4 | z (A,F,E,) D,4 | A,4 (F,2 B,,2) | D,4 (ED/B,/) (A,G,) | %5
 (A,3 B,) (F,A,)(E,B,,) |[M:2/4] D,4 |[M:4/4] G,4 (D,2 E,G,) | A,2 B,2 (D>G) (E/D/B,/D/) | %9
 A,4 (F,2 E,2) | D,2 (E,G,) (A,>D) (B,/A,/F,/E,/) | D,4 (F,2 A,2) | %12
 G,2 F,2 (E,B,,/D,/) (E,F,/A,/) | E,4 (A,2 D,2) | E,2 G,2 (A,>B,) (G,E,) | %15
 D,2 z (B,/D/) (A,/B,/A,/G,/) (F,E,) |"^pizz." G,,G,/A,/ B, z E,,E,/G,/ A, z | %17
 G,,G,/A,/ B, z D,,D,/G,/ A, z | C,G,/A,/ C z B,,F,/B,/ D z | E,G,/A,/ B, z D,D,/G,/ A, z | %20
 B,,2 z2 z2"^arco" (E,/G,/D,) | B,,4- B,,B,A,F, | E,4 A,4 | E,4 A,2 G,2 | %24
 D,2 z (B,/D/) (A,/B,/A,/G,/) (F,E,) | D,3 z z4 | D,2 (E,F,) (A,3 F) | (E>F) (^CB,) A,4- | %28
 A,(F,A,B,) (D3 E) | D2 (E,F,) A,4 |"^pizz." A,2 z2 B,2 z2 | E,2 z2 !fermata!A,,2 z2 | %32
 D, z B,, z A,, z F,, z | D,,2 z2 z4 |"^arco" B,,2 (D,>E,) (G,>A,) (E,/G,/D,) | %35
{/B,} (D>G) (E/D/B,/D/) A,4 | A,(A,/B,/){/A,} (F,E,) (D,>E,) (G,A,) | (B,,G,) (E,/D,/E,/G,/) D,4 | %38
 (B,>D) (F,A,) (E,/G,/D,- D,2) | (B,,/>D,/B,,) (D,/>E,/F,/A,/) (E,3 D,/E,/) | %40
 (G,>A,){/B,} (DB,) (A,B,/A,/) (G,E,/D,/) | B,,2 G,2 (E,/>G,/E,/D,/) (B,,/D,/E,/G,/) | %42
 D,3 z D(D/B,/) (A,/B,/D/A,/) | (B,>C) (B,A,) (G,/>A,/)(B,/D/) (A,/G,/)(F,/E,/) | %44
 D,3 (E,/G,/) D,3 (E,,/G,,/) | D,,4 z4 | x8 | z8 | z8 | z8 | z8 | z8 | z8 z2 | z4 || %54
[K:D][M:2/4]"^pizz." A,,A, A,,A, | A,,A, A,,A, | D,,D, A,D, | A,,D, A,D, | D,,D, A,D, | %59
 A,,D, A,D, | B,,F, B,F, | B,,F, B,F, | A,,E, F,A, | D, z D,A,, | B,,F, B,F, | B,,F, B,F, | %66
 E,E,, G,,B, | A,,E, A, z |"^arco" (G,>A, G,F,) | (E,D, E,F,) | A,4- | A,2 B,2 | (D>E FA) | %73
 (ED CB,) | A,4- | A,4 | D3 B, | D2 E2 | F3 E | F2 A2 | E>F EC | B,D A,B, | D4- | D2 B,2 | D3 B, | %85
 D2 E2 | F3 E | F2 A2 | B,>D A,B, | CE CB, | A,3 B, | F, z E, z |"^pizz." D,,D, A,D, | A,,D, A,D, | %94
 E,,D, A,D, | A,,D, A,D, | B,,F, B,F, | B,,F, B,F, | A,,E, F,A, | D, z D,A,, | B,,F, B,F, | %101
 B,,F, B,F, | E,E,, G,,B, | A,,D, A, z |"^arco" (B,,3 D,) | (A,,B,,) (C,B,,) | (A,,3 B,,) | %107
 F,,2 E,,2 | D,,2 z2 | z4 | z4 | z4 | z4 | z4 | z4 | z4 | z4 |"^pizz." B,,B,, z2 | B,,B,, z2 | %119
"^arco" (D,B,, A,,2) | (A,3 D,) | (F,E,/F,/) (C,B,,) | z/ (D,/E,/F,/ A,/F,/A,/B,/) | %123
 z/ (D,/E,/F,/ A,/F,/A,/B,/) | z/ (E,/F,/A,/) (B,/A,/B,/E/) | z/ (C,/E,/F,/) (A,/F,/A,/C/) | %126
 D z z2 | z/ (E,/F,/A,/) (B,/A,/B,/E/) | z/ (D,/E,/F,/) (A,B,/D/) | (A,/B,/G,/F,/) (E,/D,/E,/F,/) | %130
 A,3 z | z4 | z4 | z4 | z C B,D | A,4 | F,4 | E,4 | E,F, D,C, | B,,2 (D,/E,/F,/A,/) | (B,B) (AF) | %141
 E4 | (B,B) (A/B/A/F/) | E4 | (F3 E) | D2 (E,F,) | A,4 | (A,,F,, A,,E,) | (D,3 F,,) | %149
 (A,,>B,, E,C,) | (B,,E,) (C,B,,) | A,,4- | A,,2 z2 |[M:4/4] z8 | z4 z (AGF) | E4 B,4 | %156
 A,4 (E>A F/E/C/B,/) | A,4 D4 | C4 (B,/>C/B,/A,/ F,2) | E,4 D,4 | C,4 B,,4 | E,4 E,4 | A,4 z4 | %163
 vD2 (E/>F/D/E/){/F} A2{/A} F2 | (E>D) (EF/A/) E3 (C/B,/) | F,2 A,2 (B,/>D/)(A,/B,/) DF/A/ | %166
 EECB, A,4 | uD2 (DB,/A,/) (A,B,) z vD |{/A,} (F,/>A,/F,) (A,/>B,/C/E/) B,2 z (C/B,/) | %169
 A, (B,2{/D)} B, (A,D){/E}(CB,) | (A,>G,) (F,2{/B,} D3) z |{/E} C3 z{/^B,} (C>C) (=B,/A,/B,) | %172
 A,4- A, z z2 ||[K:G] z8 | z (DB,A,) G,4 | z (A,F,E,) D,4 | A,4 (F,2 B,,2) | D,4 (ED/B,/) (A,G,) | %178
 (A,3 B,) (F,A,)(E,B,,) |[M:2/4] D,4 |[M:4/4] G,4 (D,2 E,G,) | A,2 B,2 (D>G) (E/D/B,/D/) | %182
 A,4 (F,2 E,2) | D,2 (E,G,) (A,>D) (B,/A,/F,/E,/) | D,4 (F,2 A,2) | %185
 G,2 F,2 (E,B,,/D,/) (E,F,/A,/) | E,4 (A,2 D,2) | E,2 G,2 (A,>B,) (G,E,) | %188
 D,2 z (B,/D/) (A,/B,/A,/G,/) (F,E,) |"^pizz." G,,G,/A,/ B, z E,,E,/G,/ A, z | %190
 G,,G,/A,/ B, z D,,D,/G,/ A, z | C,G,/A,/ C z B,,F,/B,/ D z | E,G,/A,/ B, z D,D,/G,/ A, z | %193
 B,,2 z2"^arco" z2 (E,/G,/D,) | B,,4- B,,(B,A,F,) | E,4 A,4 | E,4 A,2 G,2 | D,4 z4 | z8 | z8 | %200
 (D/>E/D/E/ GF) (E/>F/E/D/ B,/D/E/G/) | D8 |] %202

